X:14
T:Ironbridge Hornpipe Continued, The
S:John Moore's Book 3
Z:Transcribed by Steve Mansfield 05/2021
%%VWML: Moore1-4495-p10-0
F:https://www.vwml.org/record/Moore3/4495/p10
M:C
L:1/8
N:(=c/B/) in Mss
K:D
V:1
d3f/e/ dAB=c | "*"(=cB) B4 ^c/d/e/f/ | ggff eedd | e2e>e e2z2 | 
D2D>D F2F>F | AFAF D2g2 | (fa)fa (ge)dc | d2d>d d2z2 |
M:C 
K:A
!p!A3c BABg | A2c2 A2 c2 |]
V:2
z2A2 F2D2 | G4 z4 | eedd AAFF | A2A>A A2z2 | 
!f! D2D>D F2F>F | AFAF [DF]2e2 | d2F2G2A2 | D2D>D D2z2 | 
M:C 
K:A
A3c BABG | A2c2 A2 c2 |]

